client/src/assets/images/global/repeat.svg

<svg width="24px" height="24px" viewBox="0 0 24 24" version="1.1" xmlns="http://www.w3.org/2000/svg" xmlns:xlink="http://www.w3.org/1999/xlink">
    <defs/>
    <g id="Page-1" stroke="none" stroke-width="1" fill="none" fill-rule="evenodd">
        <g id="Artboard-4" transform="translate(-620.000000, -467.000000)">
            <g id="174" transform="translate(620.000000, 467.000000)">
                <path d="M16.5547002,9.83205029 C15.8901455,10.2750868 15,9.79869538 15,9 L15,5 C15,4.20130462 15.8901455,3.72491322 16.5547002,4.16794971 L19.5547002,6.16794971 C20.1484333,6.56377175 20.1484333,7.43622825 19.5547002,7.83205029 L16.5547002,9.83205029 Z" id="Path-115" fill="#333333" fill-rule="nonzero"/>
                <path d="M7.4452998,19.8320503 L4.4452998,17.8320503 C3.85156673,17.4362282 3.85156673,16.5637718 4.4452998,16.1679497 L7.4452998,14.1679497 C8.10985453,13.7249132 9,14.2013046 9,15 L9,19 C9,19.7986954 8.10985453,20.2750868 7.4452998,19.8320503 Z" id="Path-115" fill="#333333" fill-rule="nonzero"/>
                <path d="M3,12 C3,9.23857625 5.23533061,7 7.99367318,7 L18,7 M21,12 C21,14.7614237 18.7661779,17 16.0049709,17 L7,17" id="Rectangle-118" stroke="#333333" stroke-width="2" stroke-linecap="round"/>
            </g>
        </g>
    </g>
</svg>

<svg xmlns="http://www.w3.org/2000/svg" viewBox="0 0 24 24">
  <defs/>
  <g fill="none" fill-rule="evenodd">
    <path fill="#333" fill-rule="nonzero" d="M16.6 9.8A1 1 0 0115 9V5a1 1 0 011.6-.8l3 2a1 1 0 010 1.6l-3 2zM7.4 19.8l-3-2a1 1 0 010-1.6l3-2A1 1 0 019 15v4a1 1 0 01-1.6.8z"/>
    <path stroke="#333" stroke-linecap="round" stroke-width="2" d="M3 12a5 5 0 015-5h10m3 5a5 5 0 01-5 5H7"/>
  </g>
</svg>
